static/images/icons/twitter.svg

<svg fill="none" height="42" viewBox="0 0 42 42" width="42" xmlns="http://www.w3.org/2000/svg" xmlns:xlink="http://www.w3.org/1999/xlink"><linearGradient id="a" gradientUnits="userSpaceOnUse" x1="8.5" x2="34.5" y1="7" y2="36"><stop offset="0" stop-color="#fec976"/><stop offset=".5" stop-color="#ffea8d"/><stop offset="1" stop-color="#cade39"/></linearGradient><clipPath id="b"><path d="m0 0h42v42h-42z"/></clipPath><g clip-path="url(#b)"><path d="m21 42c11.598 0 21-9.402 21-21 0-11.59798-9.402-21-21-21-11.59798 0-21 9.40202-21 21 0 11.598 9.40202 21 21 21z" fill="url(#a)"/><path clip-rule="evenodd" d="m33 15.2491c-.8462.3816-1.7557.6394-2.7101.7553.9741-.5936 1.7224-1.5336 2.0747-2.6537-.9118.5498-1.9216.9488-2.9965 1.1639-.8607-.9322-2.087-1.5146-3.4443-1.5146-2.6059 0-4.7188 2.1475-4.7188 4.7964 0 .3759.0418.7421.1223 1.0931-3.9218-.2-7.3988-2.1096-9.726-5.0116-.4062.7084-.639 1.5324-.639 2.4115 0 1.6641.8331 3.1322 2.0992 3.9924-.7735-.0249-1.5011-.2407-2.1372-.6-.0005.02-.0005.04-.0005.0604 0 2.3239 1.6266 4.2625 3.7852 4.7032-.3959.1097-.8128.1683-1.2431.1683-.3041 0-.5998-.0301-.8878-.0861.6004 1.9055 2.343 3.2924 4.4079 3.331-1.6149 1.2865-3.6495 2.0534-5.8604 2.0534-.3809 0-.7564-.0228-1.1256-.0671 2.0883 1.3609 4.5686 2.1551 7.2334 2.1551 8.6794 0 13.4258-7.3089 13.4258-13.6474 0-.208-.0047-.4147-.0138-.6205.922-.6764 1.722-1.5211 2.3546-2.483z" fill="#0e1025" fill-rule="evenodd"/></g></svg>

<svg width="42" height="42" viewBox="0 0 42 42" fill="none" xmlns="http://www.w3.org/2000/svg">
<g clip-path="url(#clip0_586_4557)">
<path d="M21 42C32.598 42 42 32.598 42 21C42 9.40202 32.598 0 21 0C9.40202 0 0 9.40202 0 21C0 32.598 9.40202 42 21 42Z" fill="url(#paint0_linear_586_4557)"/>
<path fill-rule="evenodd" clip-rule="evenodd" d="M33 15.2491C32.1538 15.6307 31.2443 15.8885 30.2899 16.0044C31.264 15.4108 32.0123 14.4708 32.3646 13.3507C31.4528 13.9005 30.443 14.2995 29.3681 14.5146C28.5074 13.5824 27.2811 13 25.9238 13C23.3179 13 21.205 15.1475 21.205 17.7964C21.205 18.1723 21.2468 18.5385 21.3273 18.8895C17.4055 18.6895 13.9285 16.7799 11.6013 13.8779C11.1951 14.5863 10.9623 15.4103 10.9623 16.2894C10.9623 17.9535 11.7954 19.4216 13.0615 20.2818C12.288 20.2569 11.5604 20.0411 10.9243 19.6818C10.9238 19.7018 10.9238 19.7218 10.9238 19.7422C10.9238 22.0661 12.5504 24.0047 14.709 24.4454C14.3131 24.5551 13.8962 24.6137 13.4659 24.6137C13.1618 24.6137 12.8661 24.5836 12.5781 24.5276C13.1785 26.4331 14.9211 27.82 16.986 27.8586C15.3711 29.1451 13.3365 29.912 11.1256 29.912C10.7447 29.912 10.3692 29.8892 10 29.8449C12.0883 31.2058 14.5686 32 17.2334 32C25.9128 32 30.6592 24.6911 30.6592 18.3526C30.6592 18.1446 30.6545 17.9379 30.6454 17.7321C31.5674 17.0557 32.3674 16.211 33 15.2491Z" fill="#0E1025"/>
</g>
<defs>
<linearGradient id="paint0_linear_586_4557" x1="8.5" y1="7" x2="34.5" y2="36" gradientUnits="userSpaceOnUse">
<stop stop-color="#FEC976"/>
<stop offset="0.5" stop-color="#FFEA8D"/>
<stop offset="1" stop-color="#CADE39"/>
</linearGradient>
<clipPath id="clip0_586_4557">
<rect width="42" height="42" fill="white"/>
</clipPath>
</defs>
</svg>
